X: 2059
M: 3/2
L: 1/8
K: Gm
zG |\
a2d2 c2B2 A3c | B2 G4 (cd) B3A |\
|: zb |\
a3g ^f2d2 g3f | =e3d c2f2 f3e |\
d2G2 A2B2 B3A | B3B f2d2 e3f |\
d3d g2e2 f3g | =e3e a2b2 a3g |\
^f2d2 b3a a3g | g6- g4 |]


